X:305
T: Sandpiper (The) (B)
S: Music of Ireland - The Big Session (DJ Taylor)
Z: B.Black
L: 1/8
M: 4/4
R: reel
K: Gdor
dGGF G3 F|D2 CF DFCF|DGGF G2 Bc|dfeg fdcA :|
dggf g2 ag|fdde fdcf|dggf g2 fg|agfa g2 gf|
dggf gbag|fdcA cdfg|afge fgef|d2 dc dgfg ||
